T: Hole In The Hedge
M: 6/8
L: 1/8
K: Gmaj
d/2c/2 | BAB G2 E | DB,D G2 A | BAB GFG | AGA cBA | BAB G2 E | DB,D G2 A | BAB GFG | AGF G2 :|B/2c/2 | d3 BGB | dBd edB | cBc AFA | cBc ABc | d3 BGB | dBd edc | BAG A
